X:4389
T:Mosley Street Assembly
O:england
M:C|
A:North-West
R:Reel
K:D
A2|\
d2d2 a2f2| d2d2 a2f2| gfed cBAG| FGAB AGFE|\
d2d2 a2f2| d2d2 a2f2| gfed c2e2| d2f2 d2::
A2|\
AGFE DFAc| defd B2B2| a2f2 d2B2| edcB A4|\
AGFE DFAc| defd B2ef| gfed cABc| d2f2 d2:|


